X: 3
T: The Lady On The Island
R: reel
M: 4/4
L: 1/8
K: Dmaj
d3A|{d}BAFB AFEF|D2 (3FED {d}BAdB|{d}BAFB AFAB|defd efdB||{d}BAFB AFEF|D2 (3FED {d}BAdB|{d}BAFB AFAB|defd ed (3ABc|| defd |efge|afdf e~B3|defd efge|afdf e2 (3ABc| d2 fd e~f3|afdf e~B3|defg a2 |ba|{b}afdf e2 dB||


Tune 938	Setting 29391

